X: 41
T:Rakes of Kildare, The (Variations)
M:6/8
L:1/8
Q:100
R:Jig
K:ADor
|:EAA AGA|Bcd e2f|~g3 age|dBA BAG|EAA AGA|Bcd e2f|gfe dBG|
1 ABA A2G:|2 ABA A2e||
~a3 efg|~a3 b2a|~g3 e/f/ge|dBG G2e|~a3 efg|~a3 b2a|gfe dBG|ABA A2e|
ae^c A^ce|~a3 b2a|~g3 ege|dBA BAG|EAA AGA|Bcd eaf|gfe dBG|ABA A2G||
